images/node-project-training/match-arrow.svg

<svg fill="none" height="46" viewBox="0 0 221 46" width="221" xmlns="http://www.w3.org/2000/svg"><path d="m220.121 25.1213c1.172-1.1716 1.172-3.071 0-4.2426l-19.092-19.0919c-1.171-1.171576-3.071-1.171576-4.242 0-1.172 1.17157-1.172 3.07107 0 4.24264l16.97 16.97056-16.97 16.9706c-1.172 1.1715-1.172 3.071 0 4.2426 1.171 1.1716 3.071 1.1716 4.242 0zm-220.121.8787h218v-6h-218z" fill="#ffee97"/></svg>

<svg width="221" height="46" viewBox="0 0 221 46" fill="none" xmlns="http://www.w3.org/2000/svg">
<path d="M220.121 25.1213C221.293 23.9497 221.293 22.0503 220.121 20.8787L201.029 1.7868C199.858 0.615224 197.958 0.615224 196.787 1.7868C195.615 2.95837 195.615 4.85787 196.787 6.02944L213.757 23L196.787 39.9706C195.615 41.1421 195.615 43.0416 196.787 44.2132C197.958 45.3848 199.858 45.3848 201.029 44.2132L220.121 25.1213ZM0 26H218V20H0V26Z" fill="#FFEE97"/>
</svg>
